public/no-image.svg

<svg width="150" height="200" viewBox="0 0 150 200" fill="none" xmlns="http://www.w3.org/2000/svg">
<g clip-path="url(#clip0_23_346)">
<path d="M0 190.625C0 195.794 4.38913 200 9.78261 200H140.217C145.611 200 150 195.794 150 190.625V46.875C150 41.7062 145.611 37.5 140.217 37.5H22.8261C13.8326 37.5 6.52174 30.4937 6.52174 21.875C6.52174 13.2563 13.8326 6.25 22.8261 6.25H143.478C145.278 6.25 146.739 4.85 146.739 3.125C146.739 1.4 145.278 0 143.478 0H22.8261C10.2391 0 0 9.8125 0 21.875C0 22.6438 0.0456522 23.4 0.123913 24.15C0.0456522 24.4188 0 24.7063 0 25V190.625ZM6.52174 37.1688C10.6696 41.2313 16.4413 43.75 22.8261 43.75H140.217C142.011 43.75 143.478 45.1562 143.478 46.875V190.625C143.478 192.344 142.011 193.75 140.217 193.75H9.78261C7.98913 193.75 6.52174 192.344 6.52174 190.625V37.1688Z" fill="black"/>
<path d="M143.478 18.75H26.0866C24.2866 18.75 22.8257 20.15 22.8257 21.875C22.8257 23.6 24.2866 25 26.0866 25H143.478C145.278 25 146.739 23.6 146.739 21.875C146.739 20.15 145.278 18.75 143.478 18.75Z" fill="black"/>
</g>
<path d="M60.4294 111.16C58.9148 111.16 57.5068 110.84 56.2054 110.2C54.9041 109.539 53.7734 108.653 52.8134 107.544C51.8534 106.435 51.1068 105.197 50.5734 103.832C50.0614 102.467 49.8054 101.059 49.8054 99.608C49.8054 98.072 50.0614 96.6213 50.5734 95.256C51.1068 93.8693 51.8428 92.6427 52.7814 91.576C53.7201 90.5093 54.8294 89.6667 56.1094 89.048C57.3894 88.4293 58.7868 88.12 60.3014 88.12C62.5414 88.12 64.3654 88.5787 65.7734 89.496C67.1814 90.4133 68.2481 91.608 68.9734 93.08L67.2454 94.232C66.5201 92.824 65.5494 91.7893 64.3334 91.128C63.1174 90.4667 61.7628 90.136 60.2694 90.136C59.0108 90.136 57.8694 90.4027 56.8454 90.936C55.8428 91.4693 54.9788 92.184 54.2534 93.08C53.5281 93.976 52.9734 94.9893 52.5894 96.12C52.2268 97.2507 52.0454 98.424 52.0454 99.64C52.0454 100.92 52.2588 102.136 52.6854 103.288C53.1121 104.419 53.7201 105.432 54.5094 106.328C55.2988 107.203 56.2054 107.896 57.2294 108.408C58.2748 108.899 59.3948 109.144 60.5894 109.144C61.9761 109.144 63.2881 108.803 64.5254 108.12C65.7628 107.416 66.9468 106.339 68.0774 104.888V107.256C65.9228 109.859 63.3734 111.16 60.4294 111.16ZM67.7254 101.56H62.6694V99.832H69.6134V111H67.7254V101.56ZM67.6219 139V116.28H77.2219C78.2033 116.28 79.0993 116.483 79.9099 116.888C80.7206 117.293 81.4246 117.848 82.0219 118.552C82.6406 119.235 83.1099 120.003 83.4299 120.856C83.7713 121.688 83.9419 122.541 83.9419 123.416C83.9419 124.504 83.7286 125.528 83.3019 126.488C82.8966 127.448 82.3099 128.259 81.5419 128.92C80.7953 129.581 79.9099 130.019 78.8859 130.232L84.4539 139H81.9259L76.5819 130.616H69.8619V139H67.6219ZM69.8619 128.632H77.2859C78.1819 128.632 78.9606 128.387 79.6219 127.896C80.2833 127.405 80.7953 126.765 81.1579 125.976C81.5206 125.165 81.7019 124.312 81.7019 123.416C81.7019 122.499 81.4886 121.656 81.0619 120.888C80.6566 120.099 80.1019 119.469 79.3979 119C78.7153 118.509 77.9473 118.264 77.0939 118.264H69.8619V128.632Z" fill="black"/>
<defs>
<clipPath id="clip0_23_346">
<rect width="150" height="200" fill="white"/>
</clipPath>
</defs>
</svg>

<svg xmlns="http://www.w3.org/2000/svg" width="150" height="200" fill="none" viewBox="0 0 150 200"><g fill="#000" clip-path="url(#a)"><path d="M0 190.625C0 195.794 4.39 200 9.783 200h130.434c5.394 0 9.783-4.206 9.783-9.375V46.875c0-5.169-4.389-9.375-9.783-9.375H22.827c-8.994 0-16.305-7.006-16.305-15.625S13.832 6.25 22.826 6.25h120.652c1.8 0 3.261-1.4 3.261-3.125S145.278 0 143.478 0H22.826C10.24 0 0 9.813 0 21.875c0 .769.046 1.525.124 2.275A3 3 0 0 0 0 25zM6.522 37.169c4.148 4.062 9.92 6.581 16.304 6.581h117.391c1.794 0 3.261 1.406 3.261 3.125v143.75c0 1.719-1.467 3.125-3.261 3.125H9.783c-1.794 0-3.261-1.406-3.261-3.125z"/><path d="M143.478 18.75H26.087c-1.8 0-3.261 1.4-3.261 3.125S24.286 25 26.086 25h117.392c1.8 0 3.261-1.4 3.261-3.125s-1.461-3.125-3.261-3.125"/></g><path fill="#000" d="M60.43 111.16q-2.272 0-4.225-.96a11.1 11.1 0 0 1-3.392-2.656 12.7 12.7 0 0 1-2.24-3.712 11.9 11.9 0 0 1-.768-4.224q0-2.304.768-4.352a12.1 12.1 0 0 1 2.208-3.68 10.4 10.4 0 0 1 3.328-2.528q1.92-.928 4.192-.928 3.36 0 5.472 1.376t3.2 3.584l-1.728 1.152q-1.088-2.112-2.912-3.104t-4.064-.992q-1.887 0-3.424.8a8.4 8.4 0 0 0-2.592 2.144 9.8 9.8 0 0 0-1.664 3.04 11.5 11.5 0 0 0-.544 3.52q0 1.92.64 3.648a9.8 9.8 0 0 0 1.824 3.04 9.2 9.2 0 0 0 2.72 2.08 7.8 7.8 0 0 0 3.36.736 8 8 0 0 0 3.936-1.024q1.857-1.056 3.552-3.232v2.368q-3.232 3.904-7.648 3.904m7.295-9.6H62.67v-1.728h6.944V111h-1.888zM67.622 139v-22.72h9.6q1.471 0 2.688.608 1.216.608 2.112 1.664a7.1 7.1 0 0 1 1.408 2.304q.512 1.248.512 2.56a7.5 7.5 0 0 1-.64 3.072 6.5 6.5 0 0 1-1.76 2.432 5.7 5.7 0 0 1-2.656 1.312L84.454 139h-2.528l-5.344-8.384h-6.72V139zm2.24-10.368h7.424q1.344 0 2.336-.736a4.9 4.9 0 0 0 1.536-1.92 6.2 6.2 0 0 0 .544-2.56q0-1.376-.64-2.528A4.9 4.9 0 0 0 79.398 119a3.85 3.85 0 0 0-2.304-.736h-7.232z"/><defs><clipPath id="a"><path fill="#fff" d="M0 0h150v200H0z"/></clipPath></defs></svg>
